X: 9035
T: Da Day Dawn
R: polka
M: 2/4
K: Aminor
AB|A2 {^g}a2|e2 dc|TB2 AG|A2 {^g}a2|e2 dc|e2 A<B|A2 {^g}a2|
e2 dc|TBA BG|A2 GE|DE GA|BA Bc|dc B<A|e2||

